X: 1
T: Morning Thrush, The
C: James Ennis
S: Mick O'Brien
M: 4/4
L: 1/8
R: reel
K: Dmaj
ag|:~f2ef d2AF|AdAF Agfe|d2AF DF~F2|ABdf egfe|
d2AF dAAF|BAFA dADE|EDFA defa|1afef dfag:|2afef d2(3ABc||
|:dcde faaf|~g3e fgfe|d2(3.f.fe faaf|gafg eAce|
dffe fa~a2|bfaf ecdB|ADFA defa|afef d2(3ABc:|
|:dAAF BAAF|~D3F ADFA|dFFE ~F2BF|ABdf egfe|
|dFAF DF~F2|AdFA DFBF|ABdg fagb|1afef d2(3ABc:|2afef d4||
